X: 7
T:Gower Reel
T:Lumbers
M:4/4
L:1/8
Q:180
C:Trad
S:Collected by Maud Karpeles (1927)
R:Welsh hornpipe
A:Gower Peninsula, Wales
Z:brian_martin12345@yahoo.com
K:D
A>B|A2F2 A>BA>B|A2d2d2c>B|A2F2A>BA>B|A2G2F2A>B|A2F2A>BA>B|A2d2d2e2| f2a2 g>fg>e|d2c2d2:||
G2|F2 DEF2F2|EDCD EFG2|F2 DEF2F2| EDCB,A,4|F2DEF2F2|EDCD EFG2|F2A2GFGE|D2C2D2:||
